!!!COM: Bach, Johann Sebastian
!!!CDT: 1685/3//-1750/7/28/
!!!OTL@@DE: Helft mir Gott's Guete preisen
!!!AGN: 4-Part Chorale; Chorale Prelude
!!!SCT: BH 088
!!!SCT: BWV 28
**harm	**root	**kern	**kern	**kern	**kern
!	!	!bass	!tenor	!alto	!soprno
*	*Iorgan	*Iorgan	*Iorgan	*Iorgan	*Iorgan
*	*	*clefF4	*clefF4	*clefG2	*clefG2
*M4/4	*M4/4	*M4/4	*M4/4	*M4/4	*M4/4
*met(c)	*met(c)	*met(c)	*met(c)	*met(c)	*met(c)
*MM60	*MM60	*MM60	*MM60	*MM60	*MM60
*k[f#c#]	*k[f#c#]	*k[f#c#]	*k[f#c#]	*k[f#c#]	*k[f#c#]
*b:	*b:	*b:	*b:	*b:	*b:
*>[A,A,B]	*>[A,A,B]	*>[A,A,B]	*>[A,A,B]	*>[A,A,B]	*>[A,A,B]
*>A	*>A	*>A	*>A	*>A	*>A
i	4AA	4BB	4d	4f#	4b
=1	=1	=1	=1	=1	=1
i	4AA	4B	4d	4f#	4b
Vb	4EE	4A#	4c#	4f#	4cc#
i	4AA	4B	4B	4f#	4dd
Vb/-VII	4DD	4G#	4B	4e	4ee
=2	=2	=2	=2	=2	=2
I/-VII	4.GG	2A	8A	4e	4.cc#
.	.	.	8G#	.	.
.	.	.	8A	8a	.
viiob/-VII	8FF#	.	8B	8g#	8dd
I/-VII;	4GG;	4AA;	4c#;	4a;	4ee;
Vb	4EE	4A#	4c#	4f#	4ff#
=3	=3	=3	=3	=3	=3
i	4AA	8B	8B	4f#	4dd
.	.	8A	8c#	.	.
VI	4FF	8G	4d	4b	4b
.	.	8F#	.	.	.
ii7b	4BB	4E	4g	4b	4cc#
V	4EE	4F#	8f#	4a#	4cc#
.	.	.	8e	.	.
=4	=4	=4	=4	=4	=4
i;	2.AA;	2.BB;	2.d;	2.f#;	2.b;
=:|!	=:|!	=:|!	=:|!	=:|!	=:|!
*>B	*>B	*>B	*>B	*>B	*>B
i	4AA	4BB	4d	4b	4ff#
=5	=5	=5	=5	=5	=5
viiob	4GG#	4C#	4e	8b	4ee
.	.	.	.	8a#	.
ib	4AA	4D	4f#	4b	4dd
ii7b	8BB	8E	8g	8b	4cc#
V	8EE	8F#	8f#	8a#	.
ivb	4DD	4G	8f#	8b	4b
.	.	.	8e	8B	.
=6	=6	=6	=6	=6	=6
V;	2.EE;	2.F#;	2.A#;	2.f#;	2.cc#;
V	4EE	4F#	4f#	4a#	4cc#
!!linebreak: 2
=7	=7	=7	=7	=7	=7
i	4AA	4B	4f#	4b	4dd
Vb/III	4GG	4c#	4e	4a	4ee
III	4CC	8d	8d	4a	4ff#
.	.	8c#	8e	.	.
i	4AA	8B	4f#	4b	4dd
.	.	8A	.	.	.
=8	=8	=8	=8	=8	=8
Vb/-VII	4DD	8G#	4B	4b	4.ee
.	.	8F#	.	.	.
V/-VII	4DD	4E	4e	8a	.
.	.	.	.	8g#	8dd
I/-VII;	4GG;	4A;	4e;	4a;	4cc#;
V7d/III	4GG	4G	4e	4a	4cc#
=9	=9	=9	=9	=9	=9
IIIb	4CC	4F#	4A	4a	4dd
iv	4DD	4E	8B	4g	4ee
.	.	.	8c#	.	.
III	4CC	4D	8d	4f#	4ff#
.	.	.	8e	.	.
i	4AA	8C#	4f#	4b	4dd
.	.	8BB	.	.	.
=10	=10	=10	=10	=10	=10
Ib/-VII	4GG	8C#	4e	8b	4.ee
.	.	8D	.	8a	.
V/-VII	4DD	4E	4B	8g#	.
.	.	.	.	8f#	8dd
I/-VII;	4GG;	4AA;	4c#;	4e;	4cc#;
Vb	4EE	4A#	4c#	4f#	4ff#
=11	=11	=11	=11	=11	=11
i	8AA	8B	8B	4f#	8dd
vb	8EE	8A	8c#	.	8cc#
VI	4FF	8G	4d	4b	4b
.	.	8F#	.	.	.
ii7b	4BB	4E	4g	4b	4cc#
V	4EE	4F#	8f#	4a#	4cc#
.	.	.	8e	.	.
=12	=12	=12	=12	=12	=12
I;	2.AA;	2.BB;	2.d#;	2.f#;	2.b;
==	==	==	==	==	==
*-	*-	*-	*-	*-	*-
!!!ONB: m.7, b.3: bass note 8C should perhaps be 8c
!!chor2scor: -l 2 -s 0.6 -o %b.pmx
!!!YEC: Copyright 1994, David Huron
!!!YEC: Changes/Additions 2001 by Craig Stuart Sapp
!!!YEN: United States of America
!!!SMA: 371 Bach Chorales, edited by Ludwig Erk, C.F. Peters
!!!PDT: 1850, 1865
!!!ONB: Harmony and Root analysis done manually
